!!!OTL: 63i. Beethoven, Symphony no. 7 in A major, op. 92, mvt. 2, mm. 1-18
!!!OMD: Allegretto
**kern	**kern	**dynam
*staff2	*staff1	*staff1
*clefF4	*clefG2	*clefG2
*k[]	*k[]	*k[]
*a:	*a:	*a:
*M2/4	*M2/4	*M2/4
*MM112	*MM112	*MM112
=1-	=1-	=1-
*	*^	*
2r	[2e/ [2a/ [2cc/ [2ee/	[2E\ [2A\ [2c\	.
*	*v	*v	*
.	.	f
=2	=2	=2
*	*^	*
2r	2e/_ 2a/_ 2cc/_ 2ee/_	2E\_ 2A\_ 2c\_	.
=3	=3	=3	=3
*^	*	*	*
4C/ 4E/	4AA\	4e/] 4a/] 4cc/] 4ee/]	4E\] 4A\] 4c\]	p
8C/ 8E/L	8AA\L	4r	4ry	.
8C/ 8E/J	8AA\J	.	.	.
*v	*v	*	*	*
*	*v	*v	*
*	*clefF4	*clefF4
=4	=4	=4
(4GG#'/	(4BB'/ 4E'/	.
4GG#'/)	4BB'/) 4E'/	.
=5	=5	=5
4EE/	4BB/ 4E/	.
8EE/L	8BB/ 8E/L	.
8EE/J	8BB/ 8E/J	.
=6	=6	=6
(4AA'/	4C'\ (4E'\	.
4AA'/)	4C'\ 4E'\)	.
=7	=7	=7
4AA/	4C\ 4E\	.
8AA/L	8C\ 8E\L	.
8AA/J	8C\ 8D\ 8F#\J	.
=8	=8	=8
(4GGn'/	4C'\ 4E'\ (4G'\	.
4GG'/)	4C'\ 4E'\ 4G'\)	.
=9	=9	=9
4GG/	4BB\ 4D\ 4G\	.
8GG/L	8AA\ 8C\ 8G\L	.
8GG/J	8BB\ 8D\ 8G\J	.
=10	=10	=10
4C/	4C\ 4E\ 4G\	.
4r	4r	.
=11	=11	=11
4C/	4E\ 4G\	.
8C/L	8E\ 8G\L	.
8C/J	8E\ 8A\J	.
=12	=12	=12
(4BB'/	4D#'\ (4B'\	.
4BB'/)	4D#'\ 4B'\)	.
=13	=13	=13
4BB/	4Dn\ 4F#\	.
8BB/L	8D\ 8F#\L	.
8BB/J	8D\ 8G#\J	.
=14	=14	=14
(4AA'/	4C#'\ (4A'\	.
4AA'/)	4Cn'\ 4A'\)	.
=15	=15	=15
4AA/	4C\ 4E\	.
8AA/L	8C\ 8E\L	.
8AA/J	8C\ 8E\J	.
=16	=16	=16
(4GG#'/	(4BB'/ 4E'/	.
4AA'/)	4C'/) 4E'/	.
=17	=17	=17
4EE/	4BB/ 4E/	.
8EE/L	8BB\ 8E\ 8F#\L	.
8EE/J	8BB\ 8E\ 8G#\J	.
=18	=18	=18
4AA/	4C\ 4E\ 4A\	.
4r	4r	.
=	=	=
*-	*-	*-
!!!hum2abc: -q
